src/images/logo-youtube.svg

<svg fill="none" height="23" viewBox="0 0 30 23" width="30" xmlns="http://www.w3.org/2000/svg"><g fill="#fff"><path d="m20.1053 11.4313c.0134.0665.02.1331.0134.2063.0199-.0665.0199-.1331-.0134-.2063z"/><path d="m14.979.226562c-14.47357 0-14.726559 1.284908-14.726559 11.337838 0 10.053.252989 11.3379 14.726559 11.3379 14.4736 0 14.7266-1.2849 14.7266-11.3379.0066-10.05293-.253-11.337838-14.7266-11.337838zm4.6936 12.083538-6.6443 3.2089c-.5326.2597-1.1517-.1331-1.1517-.7257v-6.27806c0-.58586.6058-.97866 1.1451-.73233l6.6442 3.06249c.2597.1198.3995.3395.4461.5792.0266.0666.0266.1398.0133.2064-.02.2796-.1664.5393-.4527.6791z"/></g></svg>

<svg width="30" height="23" viewBox="0 0 30 23" fill="none" xmlns="http://www.w3.org/2000/svg">
<path d="M20.1053 11.4313C20.1187 11.4978 20.1253 11.5644 20.1187 11.6376C20.1386 11.5711 20.1386 11.5045 20.1053 11.4313Z" fill="white"/>
<path d="M14.979 0.226562C0.50543 0.226562 0.252441 1.51147 0.252441 11.5644C0.252441 21.6174 0.50543 22.9023 14.979 22.9023C29.4526 22.9023 29.7056 21.6174 29.7056 11.5644C29.7122 1.51147 29.4526 0.226562 14.979 0.226562ZM19.6726 12.3101L13.0283 15.519C12.4957 15.7787 11.8766 15.3859 11.8766 14.7933V8.51524C11.8766 7.92938 12.4824 7.53658 13.0217 7.78291L19.6659 10.8454C19.9256 10.9652 20.0654 11.1849 20.112 11.4246C20.1386 11.4912 20.1386 11.5644 20.1253 11.631C20.1053 11.9106 19.9589 12.1703 19.6726 12.3101Z" fill="white"/>
</svg>
